polaris-icons/icons/newicons/DesktopMajor.svg

<svg width="20" height="20" viewBox="0 0 20 20" fill="none" xmlns="http://www.w3.org/2000/svg">
<path fill-rule="evenodd" clip-rule="evenodd" d="M3 5.75C3 4.23122 4.23122 3 5.75 3H14.25C15.7688 3 17 4.23122 17 5.75V11.25C17 12.7688 15.7688 14 14.25 14H12.5V15.5H13.25C13.6642 15.5 14 15.8358 14 16.25C14 16.6642 13.6642 17 13.25 17H6.75C6.33579 17 6 16.6642 6 16.25C6 15.8358 6.33579 15.5 6.75 15.5H7.5V14H5.75C4.23122 14 3 12.7688 3 11.25V5.75ZM9 14H11V15.5H9V14ZM5.75 4.5C5.05964 4.5 4.5 5.05964 4.5 5.75V9.75H15.5V5.75C15.5 5.05964 14.9404 4.5 14.25 4.5H5.75ZM15.5 11.25H4.5C4.5 11.9404 5.05964 12.5 5.75 12.5H14.25C14.9404 12.5 15.5 11.9404 15.5 11.25Z" fill="black"/>
</svg>

<svg viewBox="0 0 20 20" fill="none" xmlns="http://www.w3.org/2000/svg"><path fill-rule="evenodd" clip-rule="evenodd" d="M3 5.75a2.75 2.75 0 0 1 2.75-2.75h8.5a2.75 2.75 0 0 1 2.75 2.75v5.5a2.75 2.75 0 0 1-2.75 2.75h-1.75v1.5h.75a.75.75 0 0 1 0 1.5h-6.5a.75.75 0 0 1 0-1.5h.75v-1.5h-1.75a2.75 2.75 0 0 1-2.75-2.75v-5.5Zm6 8.25h2v1.5h-2v-1.5Zm-3.25-9.5c-.69 0-1.25.56-1.25 1.25v4h11v-4c0-.69-.56-1.25-1.25-1.25h-8.5Zm9.75 6.75h-11c0 .69.56 1.25 1.25 1.25h8.5c.69 0 1.25-.56 1.25-1.25Z" fill="#000"/></svg>
